X: 38856
T: Sunday Morning Coffee
R: jig
M: 6/8
K: Cmajor
|:cec GAB|cec gec|d2 B GAB|dGB fed|
cec GAB|cec gec|gfe dfe|1 GAB c2 B:|2 GAB c2 G||
C (3CCC EGc|egf edc|fed b2 g|aba Bcd|
c (3ccc EGc|egf edc|cac BgB|GAB c2 G|
C (3CCC EGc|egf edc|fed b2 g|aba Bcd|
c (3ccc fac|gbd c'2 a|bag gfe|GAB c2||

